packages/core/src/svgs/frm.svg

<svg width="24" height="24" viewBox="0 0 24 24" fill="none" xmlns="http://www.w3.org/2000/svg">
<g clip-path="url(#clip0_31_10529)">
<path d="M0 0H24V24H0V0Z" fill="#101334"/>
<path d="M5.57141 15.4329L6.21427 15.8058L6.85713 15.4286V12.6429L16.4486 7.30721L15.1628 6.4415L6.85713 10.9115V9.1115L13.8771 5.58007L12.5914 4.71436L5.57141 8.2715V15.4329Z" fill="url(#paint0_linear_31_10529)"/>
<path d="M15.4285 10.6543V8.92285L8.14282 13.0371V14.9871L15.4285 10.6586V10.6543Z" fill="url(#paint1_linear_31_10529)"/>
<path d="M8.99995 17.5842L7.71423 16.7185L15.4285 11.957V13.6927L8.99995 17.5927V17.5842Z" fill="#CCA362"/>
<path d="M17.3571 8.05702L18 8.46845V15.4199L11.4857 19.2856L10.2 18.4199L16.7142 14.5542V8.48559L17.3571 8.05273V8.05702Z" fill="#CCA362"/>
</g>
<defs>
<linearGradient id="paint0_linear_31_10529" x1="5.01427" y1="12.7586" x2="15.1028" y2="6.2915" gradientUnits="userSpaceOnUse">
<stop offset="0.05" stop-color="#C5C3C5"/>
<stop offset="0.3" stop-color="#F2F2F2"/>
<stop offset="0.9" stop-color="#BEBBBE"/>
</linearGradient>
<linearGradient id="paint1_linear_31_10529" x1="7.05425" y1="14.1043" x2="17.3957" y2="9.51428" gradientUnits="userSpaceOnUse">
<stop offset="0.2" stop-color="#CAA467"/>
<stop offset="0.62" stop-color="#ECC77C"/>
<stop offset="0.92" stop-color="#CCA362"/>
</linearGradient>
<clipPath id="clip0_31_10529">
<rect width="24" height="24" fill="white"/>
</clipPath>
</defs>
</svg>

<svg xmlns="http://www.w3.org/2000/svg" width="24" height="24" fill="none" viewBox="0 0 24 24"><g clip-path="url(#a)"><path fill="#101334" d="M0 0h24v24H0z"/><path fill="url(#b)" d="m5.571 15.433.643.373.643-.377v-2.786l9.592-5.336-1.286-.866-8.306 4.47v-1.8l7.02-3.53-1.286-.867-7.02 3.557z"/><path fill="url(#c)" d="M15.429 10.654V8.923l-7.286 4.114v1.95l7.285-4.328z"/><path fill="#CCA362" d="m9 17.584-1.286-.866 7.714-4.761v1.736L9 17.593z"/><path fill="#CCA362" d="m17.357 8.057.643.411v6.952l-6.514 3.866-1.286-.866 6.514-3.866V8.486l.643-.433z"/></g><defs><linearGradient id="b" x1="5.014" x2="15.103" y1="12.759" y2="6.292" gradientUnits="userSpaceOnUse"><stop offset=".05" stop-color="#C5C3C5"/><stop offset=".3" stop-color="#F2F2F2"/><stop offset=".9" stop-color="#BEBBBE"/></linearGradient><linearGradient id="c" x1="7.054" x2="17.396" y1="14.104" y2="9.514" gradientUnits="userSpaceOnUse"><stop offset=".2" stop-color="#CAA467"/><stop offset=".62" stop-color="#ECC77C"/><stop offset=".92" stop-color="#CCA362"/></linearGradient><clipPath id="a"><path fill="#fff" d="M0 0h24v24H0z"/></clipPath></defs></svg>
